Leslie-updated-tokens/acx.svg

<svg width="200" height="200" viewBox="0 0 200 200" fill="none" xmlns="http://www.w3.org/2000/svg">
<g clip-path="url(#clip0_171_196)">
<rect width="200" height="200" rx="100" fill="#6CF9D8"/>
<path fill-rule="evenodd" clip-rule="evenodd" d="M43.4472 52.6228L53.1927 42.8772L92.1381 81.8231C89.775 82.83 87.5606 84.2975 85.6325 86.2256C84.1393 87.7188 82.9218 89.3838 81.9812 91.1569L43.4472 52.6228ZM81.2475 108.998L42.8711 147.374L52.6166 157.12L90.6025 119.134C88.815 118.191 87.1368 116.966 85.6325 115.463C83.7156 113.546 82.2537 111.346 81.2475 108.998ZM109.938 119.114L147.399 156.575L157.145 146.829L119.272 108.956C118.265 111.32 116.797 113.534 114.869 115.463C113.376 116.956 111.711 118.173 109.938 119.114ZM118.541 91.1956L156.569 53.1676L146.823 43.4221L108.405 81.8406C110.752 82.8475 112.952 84.3088 114.869 86.2256C116.373 87.73 117.597 89.4081 118.541 91.1956Z" fill="#2D2E33"/>
</g>
<defs>
<clipPath id="clip0_171_196">
<rect width="200" height="200" rx="100" fill="white"/>
</clipPath>
</defs>
</svg>

<svg xmlns="http://www.w3.org/2000/svg" width="200" height="200" fill="currentColor" viewBox="0 0 200 200">
  <g clip-path="url(#a)">
    <mask id="b" width="200" height="200" x="0" y="0" maskUnits="userSpaceOnUse" style="mask-type:luminance">
      <path fill="#fff" d="M200 100C200 44.772 155.228 0 100 0S0 44.772 0 100s44.772 100 100 100 100-44.772 100-100Z"/>
    </mask>
    <g mask="url(#b)">
      <path fill="#6CF9D8" d="M200 100C200 44.772 155.228 0 100 0S0 44.772 0 100s44.772 100 100 100 100-44.772 100-100Z"/>
      <path fill="#2D2E33" fill-rule="evenodd" d="m43.447 52.623 9.746-9.746 38.945 38.946a20.615 20.615 0 0 0-6.506 4.403 20.662 20.662 0 0 0-3.65 4.93L43.446 52.624Zm37.8 56.375-38.376 38.376 9.746 9.746 37.986-37.986a20.681 20.681 0 0 1-4.97-3.671 20.613 20.613 0 0 1-4.385-6.465Zm28.691 10.116 37.461 37.461 9.746-9.746-37.873-37.873a20.626 20.626 0 0 1-4.403 6.507 20.674 20.674 0 0 1-4.931 3.651Zm8.603-27.918 38.028-38.028-9.746-9.746-38.418 38.419a20.634 20.634 0 0 1 6.464 4.385 20.687 20.687 0 0 1 3.672 4.97Z" clip-rule="evenodd"/>
    </g>
  </g>
  <defs>
    <clipPath id="a">
      <path fill="#fff" d="M0 0h200v200H0z"/>
    </clipPath>
  </defs>
</svg>
